!!!COM: Janáček, Leoš [Leo Eugen]
!!!OTL: Po zarostlém chodníčku (On the Overgrown Path), Book II
!!!OMV: Book II, No. 1: Più mosso
!!!example: 134
!!!work: Jan-26
**kern	**kern	**dynam
*part1	*part1	*part1
*staff2	*staff1	*
*I"Piano	*	*
*I'Pno.	*	*
*clefF4	*clefG2	*
*k[f#c#]	*k[f#c#]	*
*D:	*D:	*
*M3/8	*M3/8	*
=59	=	=
16r	(8.gL	.
16FFnLL	.	.
16Cn 16Fn 16A	.	.
16FF	8.e-XJ	.
16C 16F 16A	.	.
16FFJJ	.	.
=60	=60	=60
16r	8.E-XL 8.A 8.d	.
16FFnLL	.	p
16Fn	.	.
16FF	16cnL	.
16F	16B	.
16FFJJ	16cJJ)	.
=61	=61	=61
16r	([8.B-XL 8.b-X	.
16FnLL	.	.
16d-X 16fn	.	.
16F	8.B-J_ 8.ccn	.
16d- 16f	.	.
16FJJ	.	.
=62	=62	=62
16r	8.B-L_ 8.dd-X	<
16FnLL	.	.
16d-X 16fn	.	.
16F	8.B-J] 8.b-X	.
16d- 16f	.	.
16FJJ	.	.
=63	=63	=63
*	*^	*
16r	8.aL	4.B-X	[
16FnLL	.	.	.
16c#X 16e	.	.	.
16F	16gL	.	.
16c#X 16e	16f#X	.	.
16FJJ	16gJJ)	.	.
=64	=64	=64	=64
16r	(8.eeL	4.d-X	<
16B-XLL	.	.	.
16g 16b-X	.	.	.
16B-	8.ff#XJ	.	.
16g 16b-	.	.	.
16B-JJ	.	.	.
=65	=65	=65	=65
!!linebreak:original
16r	8.ggL	[4.d-X	[
16B-XLL	.	.	.
16g 16b-X	.	.	.
16B-	8.eeJ)	.	.
16g 16b-	.	.	.
16B-JJ	.	.	.
=66	=66	=66	=66
16r	(32%3ff#LL	4.d-]	.
16B-XLL	.	.	.
.	32%3ggJ	.	.
16g 16b-X	.	.	.
16e	32%3aaL	.	.
16g 16b-	.	.	.
.	32%3ff#JJ)	.	.
[16eJJ	.	.	.
=67	=67	=67	=67
4.e]	(16ggLL	16r	.
.	16aa	16gLL	.
.	16cccnJ	16b-X 16dd-X	.
.	64%3bb-XLL	16g	.
.	64%3aa	.	.
.	.	16b- 16dd-	.
.	64%3bb-	.	.
.	.	[16gJJ	.
.	64%3cccJJJ	.	.
=68	=68	=68	=68
4.r	4.ddd-X)	4g] 4b-X 4ee	<
.	.	16qqcccn\	.
.	.	16qqddd-\	.
.	.	16qqeee-X\	.
.	.	16qqddd-\	.
.	.	16qqbb-X\	.
.	.	16qqgg\	.
.	.	16qqeen\	.
.	.	16qqdd-X\	.
.	.	16qqccn\	.
.	.	16qqb-\	.
.	.	16qqe\	.
.	.	8ryy	.
*	*v	*v	*
==	==	==
*-	*-	*-
!!!CDT: 1854/07/03-1928/08/12
!!!CBL: Hukvaldy, Moravia
!!!CDL: Moravaská Ostrava, Czech Republic
!!!CNT: Czech
!!!AGN: Instrumental; Keyboard
!!!MCN:
!!!MDT:
!!!MGN:
!!!MLC:
!!!MPD: unknown
!!!MPN: unknown
!!!ODT: 1911
!!!PDT: 1942
!!!excerpt-start-measure: 59
!!!excerpt-end-measure: 68
!!!excerpt-start-time: 1:43
!!!excerpt-end-time: 1:55
!!!EEV: 2020/01/17
!!!system-decoration: {(s1,s2)}
!!!ONB: Converted from MusicXML on 2020/01/17
